src/icons/Chevron_left.svg

<svg width="32" height="32" viewBox="0 0 32 32" fill="none" xmlns="http://www.w3.org/2000/svg">
<path fill-rule="evenodd" clip-rule="evenodd" d="M20.7071 5.29289C21.0976 5.68342 21.0976 6.31658 20.7071 6.70711L11.4142 16L20.7071 25.2929C21.0976 25.6834 21.0976 26.3166 20.7071 26.7071C20.3166 27.0976 19.6834 27.0976 19.2929 26.7071L9.29289 16.7071C8.90237 16.3166 8.90237 15.6834 9.29289 15.2929L19.2929 5.29289C19.6834 4.90237 20.3166 4.90237 20.7071 5.29289Z" fill="white"/>
<path fill-rule="evenodd" clip-rule="evenodd" d="M18.9393 4.93934C19.5251 4.35355 20.4749 4.35355 21.0607 4.93934C21.6464 5.52513 21.6464 6.47487 21.0607 7.06066L12.1213 16L21.0607 24.9393C21.6464 25.5251 21.6464 26.4749 21.0607 27.0607C20.4749 27.6464 19.5251 27.6464 18.9393 27.0607L8.93934 17.0607C8.35355 16.4749 8.35355 15.5251 8.93934 14.9393L18.9393 4.93934ZM20.3536 5.64645C20.1583 5.45118 19.8417 5.45118 19.6464 5.64645L9.64645 15.6464C9.45118 15.8417 9.45118 16.1583 9.64645 16.3536L19.6464 26.3536C19.8417 26.5488 20.1583 26.5488 20.3536 26.3536C20.5488 26.1583 20.5488 25.8417 20.3536 25.6464L11.0607 16.3536C10.9669 16.2598 10.9142 16.1326 10.9142 16C10.9142 15.8674 10.9669 15.7402 11.0607 15.6464L20.3536 6.35355C20.5488 6.15829 20.5488 5.84171 20.3536 5.64645Z" fill="white"/>
</svg>

<svg xmlns="http://www.w3.org/2000/svg" width="32" height="32" fill="none"><path fill="#fff" fill-rule="evenodd" d="M20.707 5.293a1 1 0 0 1 0 1.414L11.414 16l9.293 9.293a1 1 0 0 1-1.414 1.414l-10-10a1 1 0 0 1 0-1.414l10-10a1 1 0 0 1 1.414 0" clip-rule="evenodd"/><path fill="#fff" fill-rule="evenodd" d="M18.94 4.94a1.5 1.5 0 0 1 2.12 2.12L12.122 16l8.94 8.94a1.5 1.5 0 0 1-2.122 2.12l-10-10a1.5 1.5 0 0 1 0-2.12zm1.414.706a.5.5 0 0 0-.708 0l-10 10a.5.5 0 0 0 0 .708l10 10a.5.5 0 0 0 .708-.708l-9.293-9.292a.5.5 0 0 1 0-.708l9.293-9.292a.5.5 0 0 0 0-.708" clip-rule="evenodd"/></svg>
